X: 33105
T: Prince Of Wales, The
R: reel
M: 4/4
K: Amixolydian
a|c2BA AAAc|e2eA feca|c2BA AAAc|e2ac BBBd|
c2BA AAAc|e2eA fece|d2de fgaf|ecdB AAA||
a|cAeA fAeA|cAeA feca|cAeA fAed|cAac BBBd|
cAeA fAeA|ceeA fece|d2de fgaf|ecdB AAA||

